X:142
T:Brave Corsicans THO3.142, The
O:England;London
M:6/8
L:1/8
Z:vmp. Peter Dunk 2011.from a transcription by Fynn Titford-Mock 2006-9
B:Thompson's Compleat Collection of 200 Favourite Country Dances Vol. III.1765-72
Q:3/8=100
K:A
E| CEA cBA|DFB dcB|Eec BAG|"G.Fl.""_Vio."Aed cBA &AED CB,A,|\
cEA cBA &CEA x3|Bc^d efg|agf ef^d|e3 e2:|
|:e|ABc def|=gec d2 d|Bcd efg|af^d e2E|\
[cC]DA DFd|Ece Fdf|edc BAG|A3 A2:|

